public/4weeks.svg

<svg width="288" height="77" viewBox="0 0 288 77" fill="none" xmlns="http://www.w3.org/2000/svg">
<rect x="0.6" y="0.6" width="286.8" height="75.8" stroke="white" stroke-width="1.2" stroke-dasharray="13 13"/>
<path d="M97.799 42.6264V40.0075L105.514 27.8182H107.698V31.5469H106.366L101.173 39.7766V39.9187H111.941V42.6264H97.799ZM106.473 46V41.8274L106.508 40.6555V27.8182H109.615V46H106.473ZM121.829 46L117.976 32.3636H121.252L123.649 41.9517H123.773L126.223 32.3636H129.464L131.914 41.8984H132.047L134.409 32.3636H137.694L133.832 46H130.485L127.928 36.7848H127.741L125.185 46H121.829ZM144.584 46.2663C143.217 46.2663 142.036 45.9822 141.041 45.4141C140.053 44.84 139.293 44.0291 138.76 42.9815C138.227 41.928 137.961 40.6881 137.961 39.2617C137.961 37.859 138.227 36.628 138.76 35.5685C139.298 34.5032 140.05 33.6746 141.015 33.0827C141.98 32.485 143.113 32.1861 144.415 32.1861C145.255 32.1861 146.049 32.3222 146.794 32.5945C147.546 32.8608 148.209 33.2751 148.783 33.8374C149.363 34.3996 149.819 35.1158 150.15 35.9858C150.482 36.8499 150.647 37.8797 150.647 39.0753V40.0607H139.47V37.8945H147.567C147.561 37.279 147.428 36.7315 147.167 36.2521C146.907 35.7668 146.543 35.3851 146.075 35.1069C145.614 34.8287 145.075 34.6896 144.459 34.6896C143.802 34.6896 143.225 34.8494 142.728 35.169C142.231 35.4827 141.843 35.897 141.565 36.4119C141.293 36.9209 141.154 37.4802 141.148 38.0898V39.9808C141.148 40.7739 141.293 41.4545 141.583 42.0227C141.873 42.585 142.278 43.017 142.799 43.3189C143.32 43.6148 143.93 43.7628 144.628 43.7628C145.096 43.7628 145.519 43.6977 145.898 43.5675C146.276 43.4313 146.605 43.2331 146.883 42.9727C147.161 42.7122 147.371 42.3897 147.513 42.005L150.514 42.3423C150.325 43.1354 149.964 43.8279 149.431 44.4197C148.904 45.0057 148.23 45.4614 147.407 45.7869C146.584 46.1065 145.643 46.2663 144.584 46.2663ZM158.403 46.2663C157.036 46.2663 155.855 45.9822 154.861 45.4141C153.872 44.84 153.112 44.0291 152.579 42.9815C152.047 41.928 151.78 40.6881 151.78 39.2617C151.78 37.859 152.047 36.628 152.579 35.5685C153.118 34.5032 153.869 33.6746 154.834 33.0827C155.799 32.485 156.932 32.1861 158.234 32.1861C159.075 32.1861 159.868 32.3222 160.614 32.5945C161.365 32.8608 162.028 33.2751 162.602 33.8374C163.182 34.3996 163.638 35.1158 163.969 35.9858C164.301 36.8499 164.467 37.8797 164.467 39.0753V40.0607H153.289V37.8945H161.386C161.38 37.279 161.247 36.7315 160.987 36.2521C160.726 35.7668 160.362 35.3851 159.895 35.1069C159.433 34.8287 158.894 34.6896 158.279 34.6896C157.622 34.6896 157.045 34.8494 156.548 35.169C156.05 35.4827 155.663 35.897 155.385 36.4119C155.112 36.9209 154.973 37.4802 154.967 38.0898V39.9808C154.967 40.7739 155.112 41.4545 155.402 42.0227C155.692 42.585 156.098 43.017 156.619 43.3189C157.139 43.6148 157.749 43.7628 158.447 43.7628C158.915 43.7628 159.338 43.6977 159.717 43.5675C160.096 43.4313 160.424 43.2331 160.702 42.9727C160.981 42.7122 161.191 42.3897 161.333 42.005L164.333 42.3423C164.144 43.1354 163.783 43.8279 163.25 44.4197C162.724 45.0057 162.049 45.4614 161.226 45.7869C160.404 46.1065 159.462 46.2663 158.403 46.2663ZM169.115 41.7209L169.106 37.8413H169.621L174.522 32.3636H178.277L172.249 39.0753H171.583L169.115 41.7209ZM166.185 46V27.8182H169.399V46H166.185ZM174.744 46L170.305 39.7944L172.471 37.5305L178.588 46H174.744ZM190.197 35.968L187.267 36.2876C187.184 35.9917 187.039 35.7135 186.832 35.4531C186.631 35.1927 186.358 34.9826 186.015 34.8228C185.672 34.663 185.252 34.5831 184.754 34.5831C184.086 34.5831 183.523 34.7281 183.068 35.0181C182.618 35.3081 182.396 35.6839 182.402 36.1456C182.396 36.5421 182.541 36.8647 182.837 37.1133C183.139 37.3619 183.636 37.5661 184.328 37.7259L186.654 38.223C187.945 38.5012 188.903 38.9421 189.531 39.5458C190.164 40.1495 190.484 40.9396 190.49 41.9162C190.484 42.7744 190.232 43.532 189.735 44.1889C189.244 44.84 188.56 45.349 187.684 45.7159C186.808 46.0829 185.802 46.2663 184.666 46.2663C182.997 46.2663 181.653 45.9171 180.635 45.2188C179.617 44.5144 179.01 43.5349 178.815 42.2802L181.949 41.9783C182.091 42.5939 182.393 43.0585 182.855 43.3722C183.316 43.6858 183.917 43.8427 184.657 43.8427C185.42 43.8427 186.033 43.6858 186.494 43.3722C186.962 43.0585 187.196 42.6708 187.196 42.2092C187.196 41.8185 187.045 41.496 186.743 41.2415C186.447 40.987 185.985 40.7917 185.358 40.6555L183.032 40.1673C181.724 39.895 180.756 39.4363 180.129 38.7912C179.502 38.1402 179.191 37.3175 179.197 36.3232C179.191 35.4827 179.419 34.7547 179.881 34.1392C180.348 33.5178 180.996 33.0384 181.825 32.701C182.659 32.3577 183.621 32.1861 184.71 32.1861C186.308 32.1861 187.566 32.5264 188.483 33.207C189.406 33.8877 189.978 34.808 190.197 35.968Z" fill="white"/>
</svg>

<?xml version="1.0" encoding="UTF-8"?>
<svg id="Layer_1" data-name="Layer 1" xmlns="http://www.w3.org/2000/svg" viewBox="0 0 288 77">
  <defs>
    <style>
      .cls-1 {
        fill: #fff;
      }

      .cls-2 {
        stroke-dasharray: 12.56 12.56;
      }

      .cls-2, .cls-3, .cls-4 {
        fill: none;
        stroke: #fff;
        stroke-width: 1.2px;
      }

      .cls-4 {
        stroke-dasharray: 13.04 13.04;
      }
    </style>
  </defs>
  <g>
    <polyline class="cls-3" points=".6 7.1 .6 .6 7.1 .6"/>
    <line class="cls-4" x1="20.14" y1=".6" x2="274.38" y2=".6"/>
    <polyline class="cls-3" points="280.9 .6 287.4 .6 287.4 7.1"/>
    <line class="cls-2" x1="287.4" y1="19.66" x2="287.4" y2="63.62"/>
    <polyline class="cls-3" points="287.4 69.9 287.4 76.4 280.9 76.4"/>
    <line class="cls-4" x1="267.86" y1="76.4" x2="13.62" y2="76.4"/>
    <polyline class="cls-3" points="7.1 76.4 .6 76.4 .6 69.9"/>
    <line class="cls-2" x1=".6" y1="57.34" x2=".6" y2="13.38"/>
  </g>
  <path class="cls-1" d="M97.8,42.63v-2.62l7.72-12.19h2.18v3.73h-1.33l-5.19,8.23v.14h10.77v2.71h-14.14ZM106.47,46v-4.17l.04-1.17v-12.84h3.11v18.18h-3.14ZM121.83,46l-3.85-13.64h3.28l2.4,9.59h.12l2.45-9.59h3.24l2.45,9.53h.13l2.36-9.53h3.29l-3.86,13.64h-3.35l-2.56-9.22h-.19l-2.56,9.22h-3.36ZM144.58,46.27c-1.37,0-2.55-.28-3.54-.85-.99-.57-1.75-1.38-2.28-2.43-.53-1.05-.8-2.29-.8-3.72s.27-2.63.8-3.69c.54-1.07,1.29-1.89,2.26-2.49.96-.6,2.1-.9,3.4-.9.84,0,1.63.14,2.38.41.75.27,1.41.68,1.99,1.24.58.56,1.04,1.28,1.37,2.15.33.86.5,1.89.5,3.09v.99h-11.18v-2.17h8.1c0-.62-.14-1.16-.4-1.64-.26-.49-.62-.87-1.09-1.15-.46-.28-1-.42-1.62-.42-.66,0-1.23.16-1.73.48-.5.31-.88.73-1.16,1.24-.27.51-.41,1.07-.42,1.68v1.89c0,.79.15,1.47.43,2.04.29.56.7.99,1.22,1.3.52.3,1.13.44,1.83.44.47,0,.89-.07,1.27-.2.38-.14.71-.33.99-.59.28-.26.49-.58.63-.97l3,.34c-.19.79-.55,1.49-1.08,2.08-.53.59-1.2,1.04-2.02,1.37-.82.32-1.76.48-2.82.48h0ZM158.4,46.27c-1.37,0-2.55-.28-3.54-.85-.99-.57-1.75-1.38-2.28-2.43-.53-1.05-.8-2.29-.8-3.72s.27-2.63.8-3.69c.54-1.07,1.29-1.89,2.26-2.49.96-.6,2.1-.9,3.4-.9.84,0,1.63.14,2.38.41.75.27,1.41.68,1.99,1.24.58.56,1.04,1.28,1.37,2.15.33.86.5,1.89.5,3.09v.99h-11.18v-2.17h8.1c0-.62-.14-1.16-.4-1.64-.26-.49-.62-.87-1.09-1.15-.46-.28-1-.42-1.62-.42-.66,0-1.23.16-1.73.48-.5.31-.88.73-1.16,1.24-.27.51-.41,1.07-.42,1.68v1.89c0,.79.15,1.47.43,2.04.29.56.7.99,1.22,1.3.52.3,1.13.44,1.83.44.47,0,.89-.07,1.27-.2.38-.14.71-.33.99-.59.28-.26.49-.58.63-.97l3,.34c-.19.79-.55,1.49-1.08,2.08-.53.59-1.2,1.04-2.02,1.37-.82.32-1.76.48-2.82.48h0ZM169.12,41.72v-3.88s.51,0,.51,0l4.9-5.48h3.76l-6.03,6.71h-.67l-2.47,2.65ZM166.19,46v-18.18h3.21v18.18h-3.21ZM174.74,46l-4.44-6.21,2.17-2.26,6.12,8.47h-3.84ZM190.2,35.97l-2.93.32c-.08-.3-.23-.57-.43-.83-.2-.26-.47-.47-.82-.63s-.76-.24-1.26-.24c-.67,0-1.23.15-1.69.44-.45.29-.67.67-.67,1.13,0,.4.14.72.43.97.3.25.8.45,1.49.61l2.33.5c1.29.28,2.25.72,2.88,1.32.63.6.95,1.39.96,2.37,0,.86-.26,1.62-.76,2.27-.49.65-1.18,1.16-2.05,1.53-.88.37-1.88.55-3.02.55-1.67,0-3.01-.35-4.03-1.05-1.02-.7-1.62-1.68-1.82-2.94l3.13-.3c.14.62.44,1.08.91,1.39.46.31,1.06.47,1.8.47s1.38-.16,1.84-.47c.47-.31.7-.7.7-1.16,0-.39-.15-.71-.45-.97-.3-.25-.76-.45-1.38-.59l-2.33-.49c-1.31-.27-2.28-.73-2.9-1.38-.63-.65-.94-1.47-.93-2.47,0-.84.22-1.57.68-2.18.47-.62,1.12-1.1,1.94-1.44.83-.34,1.8-.51,2.88-.51,1.6,0,2.86.34,3.77,1.02.92.68,1.49,1.6,1.71,2.76h0Z"/>
</svg>
